frontend/images/prima_pagina/icona_fullscreen_off.svg

<svg xmlns="http://www.w3.org/2000/svg" height="48" width="48"><path d="M16.65 38v-6.65H10v-3h9.65V38Zm11.7 0v-9.65H38v3h-6.65V38ZM10 19.65v-3h6.65V10h3v9.65Zm18.35 0V10h3v6.65H38v3Z"/></svg>

<svg width="48" height="48" viewBox="0 0 48 48" fill="none" xmlns="http://www.w3.org/2000/svg">
<path d="M16.65 38V31.35H10V28.35H19.65V38H16.65ZM28.35 38V28.35H38V31.35H31.35V38H28.35ZM10 19.65V16.65H16.65V10H19.65V19.65H10ZM28.35 19.65V10H31.35V16.65H38V19.65H28.35Z" fill="#FDFCFA"/>
</svg>
